outputs/icons/image/exposure_round.svg

<svg xmlns="http://www.w3.org/2000/svg" width="1200" height="1200" fill="none"><g clip-path="url(#a)"><path fill="#000" d="M950 150H250c-55 0-100 45-100 100v700c0 55 45 100 100 100h700c55 0 100-45 100-100V250c0-55-45-100-100-100M312.5 375H375v-62.5c0-20.5 17-37.5 37.5-37.5s37.5 17 37.5 37.5V375h62.5c20.5 0 37.5 17 37.5 37.5S533 450 512.5 450H450v62.5c0 20.5-17 37.5-37.5 37.5S375 533 375 512.5V450h-62.5c-20.5 0-37.5-17-37.5-37.5s17-37.5 37.5-37.5M900 950H250l700-700v650c0 27.5-22.5 50-50 50m-50-137.5c0-20.5-17-37.5-37.5-37.5h-175c-20.5 0-37.5 17-37.5 37.5s17 37.5 37.5 37.5h175c20.5 0 37.5-17 37.5-37.5"/></g><defs><clipPath id="a"><path fill="#fff" d="M0 0h1200v1200H0z"/></clipPath></defs></svg>

<svg width="1200" height="1200" viewBox="0 0 1200 1200" fill="none" xmlns="http://www.w3.org/2000/svg"><g clip-path="url(#clip0_1106_3212)"><path d="M950 150H250C195 150 150 195 150 250V950C150 1005 195 1050 250 1050H950C1005 1050 1050 1005 1050 950V250C1050 195 1005 150 950 150ZM312.5 375H375V312.5C375 292 392 275 412.5 275C433 275 450 292 450 312.5V375H512.5C533 375 550 392 550 412.5C550 433 533 450 512.5 450H450V512.5C450 533 433 550 412.5 550C392 550 375 533 375 512.5V450H312.5C292 450 275 433 275 412.5C275 392 292 375 312.5 375ZM900 950H250L950 250V900C950 927.5 927.5 950 900 950ZM850 812.5C850 792 833 775 812.5 775H637.5C617 775 600 792 600 812.5C600 833 617 850 637.5 850H812.5C833 850 850 833 850 812.5Z" fill="black"/></g><defs><clipPath id="clip0_1106_3212"><path width="24" fill="white" d="M0 0H1200V1200H0V0z"/></clipPath></defs></svg>
